X: 1
T:The Fading Light
M:6/8
L:1/8
C:Keith Murphy
S:Along the River (ed. Susan Conger)
R:Jig
K:G
D |: "Em"E3 G3 | "D"AGA "G"B2 d | "C"edc BAG | "D"AGA BGD |!
"Em" E3 GFG | "D"AGA "G"B2 d | "C"edc BAG | "D"AGD "Em"E3 :| !
|: "C"e d2 "G"d2 B | "D"AGA "G"B3 | "C"EGG GBG | "D"AGA "Em"B2 d |!
"C"e d2 "G"d2 B | "D"AGA "G"B3 | "C"EGG GBG |1 "D"AGD "Em"E2 d :|2 "D"AG
D "Em"E2 ||
